!!!COM: Joplin, Scott
!!!CDT: 1868/11/24-1917/04/01
!!!OTL: Pine Apple Rag
!!!AGN: Rag
!!!ODT: 1908
!!!OMD: Slow March tempo. [quarter]=100
**kern	**kern	**dynam
*staff2	*staff1	*staff1/2
*Ipiano	*Ipiano	*Ipiano
*>[I,A,A1,A,A2,B,B1,B,B2,C,D,D1,D,D2,E,E1,E,E2]	*>[I,A,A1,A,A2,B,B1,B,B2,C,D,D1,D,D2,E,E1,E,E2]	*>[I,A,A1,A,A2,B,B1,B,B2,C,D,D1,D,D2,E,E1,E,E2]
*>norep[I,A,A2,B,B2,C,D,D2,E,E2]	*>norep[I,A,A2,B,B2,C,D,D2,E,E2]	*>norep[I,A,A2,B,B2,C,D,D2,E,E2]
*>I	*>I	*>I
=1-	=1-	=1-
*clefF4	*clefG2	*clefG2
*k[b-e-]	*k[b-e-]	*k[b-e-]
*B-:	*B-:	*B-:
*M2/4	*M2/4	*M2/4
*MM100	*MM100	*MM100
16GLK	16gLK	mf
8F	8f	.
16E-Jk	16e-Jk	.
(16DLL	(16dLL	.
16C#	16c#	.
16D	16d	.
16CnJJ)	16cnJJ)	.
=2	=2	=2
(16BB-LL	(16B-LL	.
16C	16c	.
16D	16d	.
[16FJJ)	[16fJJ)	.
4F]	4f]	.
=3	=3	=3
16GLK	16gLK	.
8G	8g	.
16F#Jk	16f#Jk	.
(16GLL	(16gLL	.
16AJ	16aJ	.
8B-J)	8b-J)	.
=4	=4	=4
8cL	8ccL	.
[8FJ	[8fJ	.
8FL]	8fL]	.
8FJ	8fJ	.
!!LO:LB:g=original
=5!|:	=5!|:	=5!|:
*>A	*>A	*>A
8BB-L	16ggLK dd b-	mf
.	8ff	.
8dJ B- F	.	.
.	16ee-Jk	.
8FFL	(16ddLL	.
.	16cc#	.
8dJ B- F	16dd	.
.	16ccnJJ)	.
=6	=6	=6
8BB-L	(16b-LL	.
.	16cc	.
8dJ B- F	16dd	.
.	[16ffJJ)	.
8FFL	16ffLL]	.
.	16bb-J	.
8dJ B- F	8dddJ ff	.
=7	=7	=7
8BB-L	16ggLK dd b-	.
.	8ff	.
8dJ B- F	.	.
.	16ee-Jk	.
8FFL	(16ddLL	.
.	16cc#	.
8dJ B- F	16dd	.
.	16ee-JJ)	.
=8	=8	=8
(8BB-L	8ffL dd b-	<
8D	(16ffL b-	.
.	16ddJJ)	.
8F	(16ffLL b-	.
.	16ddJ	.
8A-J)	8ffJ b-)	[
!!LO:LB:g=original
=9	=9	=9
*^	*	*
8GL	4G GG	(16b-LK	f
.	.	8bb- ee-)	.
8e-J B- G	.	.	.
.	.	(16b-Jk	.
8G-L	4G- GG-	8bb-L ee-)	.
8e-J B- G-	.	(16b-L	.
.	.	[16bb-JJ [dd)	.
*v	*v	*	*
=10	=10	=10
8FL FF	16bb-]LL dd]	.
.	(16ddd	.
8dJ B- F	16bb-	.
.	16ddJJ)	.
*	*^	*
8DL DD	(16ffLL	4b-	.
.	16een	.	.
8D-J DD-	16ff	.	.
.	16ggJJ)	.	.
*	*v	*v	*
=11	=11	=11
8CL CC	(16aaLK	.
.	8ff cc)	.
8fJ c A	.	.
.	(16aaJk	.
8CL CC	8ggL een b-)	.
8enJ c B-	16aaL ee b-	.
.	[16ffJJ [a	.
=12	=12	=12
8FL FF	8ff]L a]	.
(8C	(16aL	.
.	16b-JJ	.
8AA	16ccLL	.
.	16dd	.
8FFJ)	16ee-X	.
.	16ffJJ)	.
!!LO:LB:g=original
=13	=13	=13
8BB-L	16ggLK dd b-	mf
.	8ff	.
8dJ B- F	.	.
.	16ee-Jk	.
8FFL	(16ddLL	.
.	16cc#	.
8dJ B- F	16dd	.
.	16ccnJJ)	.
=14	=14	=14
8BB-L	(16b-LL	.
.	16cc	.
8dJ B- F	16dd	.
.	[16ffJJ)	.
8FFL	16ffLL]	.
.	16bb-J	.
8dJ B- F	8dddJ ff	.
=15	=15	=15
8BB-L	16ggLK dd b-	.
.	8ff	.
8dJ B- F	.	.
.	16ee-Jk	.
8FFL	(16ddLL	.
.	16cc#	.
8dJ B- F	16dd	.
.	16ee-JJ)	.
=16	=16	=16
(8BB-L	8ffL dd b-	.
8D	16ffL b-	.
.	16ddJJ	.
8F	(16ffLL b-	.
.	16ddJ	.
8A-J)	8ffJ b-)	.
!!LO:LB:g=original
=17	=17	=17
*^	*	*
8GL	4G GG	(16b-LK	f
.	.	8bb- ee-)	.
8e-J B- G	.	.	.
.	.	(16b-Jk	.
8G-L	4G- GG-	8bb-L ee-)	.
8e-J B- G-	.	(16b-L	.
.	.	[16bb-JJ [dd)	.
*v	*v	*	*
=18	=18	=18
8FL FF	16bb-]LL dd]	.
.	(16ddd	.
8dJ B- F	16bb-	.
.	16ffJJ)	.
8FL FF	(16ddLL	.
.	16ff	.
8dJ B- F	16gg	.
.	16bb-JJ)	.
=19	=19	=19
*>A1	*>A1	*>A1
*	*^	*
(8GL GG	4b-	(8enL	.
8G-J GG-)	.	8e-J)	.
4F FF	16ccLK	8.aL e-	.
.	8dd	.	.
.	[16b-Jk	[16dJk	.
*	*v	*v	*
=20	=20	=20
8B- BB-	8b-]L d]	.
8r	(16b-L	.
.	16ccJJ	.
8r	16ddLL	.
.	16ee-J)	.
8F FF	8ffJ ee- a	.
!!LO:LB:g=original
=21:|!	=21:|!	=21:|!
*>A2	*>A2	*>A2
*	*^	*
(8GL< GG	4b-	(8enL	.
8G-J GG-)	.	8e-J)	.
4F FF	16ccLK	8.aL e-	.
.	8dd	.	.
.	[16b-Jk	[16dJk	.
=22	=22	=22	=22
8B- BB-	8b-L]	8d]	.
*	*v	*v	*
8r	(16fL	.
.	16enJJ	.
8r	16fLL	.
.	16f#	.
8Bn BBn	16g	.
.	16g#JJ)	.
=23!|:	=23!|:	=23!|:
*>B	*>B	*>B
8cL C	(16aLK	mf
.	8aa ee- cc)	.
8e-J A F	.	.
.	(16gJk	.
8FL FF	8ggL ee- cc)	.
8e-J A F	(16aL	.
.	[16aaJJ [ee- [cc)	.
=24	=24	=24
8cL C	16aa]LL ee-] cc]	.
.	(16gJ	.
8e-J A F	8ggJ ee- cc)	.
8FL FF	8aaL ee- cc a	.
8e-J A F	8ggJ ee- cc g	.
!!LO:LB:g=original
=25	=25	=25
8B-L BB-	(16gLK<	.
.	8gg dd b-)	.
8dJ B- F	.	.
.	(16fJk	.
8FL FF	8ffL dd b-)	.
8dJ B- F	(16gL	.
.	[16ggJJ [dd b-)	.
=26	=26	=26
8B-L BB-	16gg]LL dd] b-	.
.	(16fJ	.
8dJ B- F	8ffJ dd b-)	.
8FL FF	8ggL dd b- g	.
8dJ B- F	8ffJ dd b- f	.
=27	=27	=27
8AL AA	(16ffLK	.
.	8fff ccc aa)	.
8e-J A F	.	.
.	(16ee-Jk	.
8FL FF	8eee-L ccc aa)	.
8e-J A F	(16ddL	.
.	[16dddJJ [aa [ff)	.
=28	=28	=28
8AL AA	16ddd]LL aa] ff]	.
.	(16ee-J	.
8e-J A F	8eee-J ccc aa)	.
8FL FF	8dddL ff dd	.
8e-J A F	8cccJ ff cc	.
=29	=29	=29
8B-L BB-	(16ccLK	.
.	8ccc ff)	.
8dJ B- F	.	.
.	([<16b-Jk	.
8B-L BB-	8bb-L ff b-])	.
8c#J B- En	8ggJ cc# b- g	.
!!LO:LB:g=original
=30	=30	=30
8d B- F	8ffL< dd b- f	.
8r	(16fL	.
.	16enJJ	.
8r	16fLL	.
.	16f#	.
8Bn BBn	16g	.
.	16g#JJ)	.
=31	=31	=31
8cL C	(16aLK	.
.	8aa ee- cc)	.
8e-J A F	.	.
.	(16gJk	.
8FL FF	8ggL ee- cc)	.
8e-J A F	(16aL	.
.	[16aaJJ [ee- [cc)	.
=32	=32	=32
8cL C	16aa]LL ee-] cc]	.
.	(16gJ	.
8e-J A F	8ggJ ee- cc)	.
8FL FF	8aaL ee- cc a	.
8e-J A F	8ggJ ee- cc g	.
=33	=33	=33
8B-L BB-	(16gLK<	.
.	8gg dd b-)	.
8dJ B- F	.	.
.	(16fJk	.
8FL FF	8ffL dd b-)	.
8dJ B- F	(16gL	.
.	[16ggJJ [dd [b-)	.
=34	=34	=34
8B-L BB-	16gg]LL dd] b-]	.
.	(16fJ	.
8dJ B- F	8ffJ dd b-)	.
8FL FF	8ggL dd b- g	<
8dJ B- F	8ffJ dd b- f	[[
!!LO:LB:g=original
=35	=35	=35
8E-L EE-	(16g-LK	f
.	8gg-X ee- b-)	.
8e-J B- G-	.	.
.	([<16b-Jk	.
8G-L GG-X	8bb-L gg- ee- b-])	.
8E-J EE-	8gg-J ee- b- g-	.
=36	=36	=36
8DL DD	(16fLK<	.
.	8ff dd b-)	.
8dJ B- F	.	.
.	([<16enJk	.
8C#L CC#	8eenL cc# b- e])	.
8DJ DD	8ffJ dd b- f	.
=37	=37	=37
8FL FF	(16ee-XLK	.
.	8ccc aa)	.
8e-J A F	.	.
.	([<16ffJk	.
8FL FF	8dddL aa ff])	.
8e-J A F	8cccJ aa ee-	.
=38	=38	=38
*>B1	*>B1	*>B1
8B- BB-	8bb-L dd	.
8r	(16fL	.
.	16enJJ	.
8r	16fLL	.
.	16f#	.
8Bn BBn	16g	.
.	16g#JJ)	.
=39:|!	=39:|!	=39:|!
*>B2	*>B2	*>B2
8B- BB-	8bb-L dd	.
8r	(16b-L	.
.	16ccJJ	.
8r	16ddLL	.
.	16ee-J)	.
8F FF	8ffJ ee- a	.
!!LO:LB:g=original
=40||	=40||	=40||
*>C	*>C	*>C
8BB-L	16ggLK dd b-	mf
.	8ff	.
8dJ B- F	.	.
.	16ee-Jk	.
8FFL	(16ddLL	.
.	16cc#	.
8dJ B- F	16dd	.
.	16ccnJJ)	.
=41	=41	=41
8BB-L	(16b-LL	.
.	16cc	.
8dJ B- F	16dd	.
.	[16ffJJ)	.
8FFL	16ffLL]	.
.	16bb-J	.
8dJ B- F	8dddJ ff	.
=42	=42	=42
8BB-L	16ggLK dd b-	.
.	8ff	.
8dJ B- F	.	.
.	16ee-Jk	.
8FFL	(16ddLL	.
.	16cc#	.
8dJ B- F	16dd	.
.	16ee-JJ)	.
=43	=43	=43
(8BB-L	8ffL dd b-	.
8D	(16ffL b-	.
.	16ddJJ	.
8F	16ffLL b-	.
.	16ddJ)	.
8A-J)	8ffJ b-	.
=44	=44	=44
*^	*	*
8GL	4G GG	(16b-LK	f
.	.	8bb- ee-)	.
8e-J B- G	.	.	.
.	.	(16b-Jk	.
8G-L	4G- GG-	8bb-L ee-)	.
8e-J B- G-	.	(16b-L	.
.	.	[16bb-JJ [dd)	.
*v	*v	*	*
!!LO:LB:g=original
=45	=45	=45
8FL FF	16bb-]LL dd]	.
.	(16ddd	.
8dJ B- F	16bb-	.
.	16ddJJ)	.
*	*^	*
(8DL DD	(16ffLL	4b-	.
.	16een	.	.
8D-J DD-)	16ff	.	.
.	16ggJJ)	.	.
*	*v	*v	*
=46	=46	=46
8CL CC	(16aaLK	.
.	8ff cc)	.
8fJ c A	.	.
.	(16aaJk	.
8CL CC	8ggL een b-)	.
8enJ c B-	16aaL ee b-	.
.	[16ffJJ [a	.
=47	=47	=47
8FL FF	8ff]L a]	.
8C	(16aL	.
.	16b-JJ	.
8AA	16ccLL	.
.	16dd	.
8FFJ	16ee-	.
.	16ffJJ)	.
=48	=48	=48
8BB-L	16ggLK dd b-	mf
.	8ff	.
8dJ B- F	.	.
.	16ee-Jk	.
8FFL	(16ddLL	.
.	16cc#	.
8dJ B- F	16dd	.
.	16ccnJJ)	.
=49	=49	=49
8BB-L	(16b-LL	.
.	16cc	.
8dJ B- F	16dd	.
.	[16ffJJ)	.
8FFL	16ffLL]	.
.	16bb-J	.
8dJ B- F	8dddJ ff	.
!!LO:LB:g=original
=50	=50	=50
8BB-L	16ggLK dd b-	.
.	8ff	.
8dJ B- F	.	.
.	16ee-Jk	.
8FFL	(16ddLL	.
.	16cc#	.
8dJ B- F	16dd	.
.	16ee-JJ)	.
=51	=51	=51
(8BB-L	8ffL dd b-	<
8D	(16ffL b-	.
.	16ddJJ	.
8F	16ffLL b-	.
.	16ddJ	.
8A-J)	8ffJ b-)	[[
=52	=52	=52
*^	*	*
8GL	4G GG	(16b-LK	f
.	.	8bb- ee-)	.
8e-J G	.	.	.
.	.	(16b-Jk	.
8G-L	4G- GG-	8bb-L ee-)	.
8e-J B- G-	.	(16b-L	.
.	.	[16bb-JJ [dd)	.
*v	*v	*	*
=53	=53	=53
8FL FF	16bb-]LL dd]	.
.	(16ddd	.
8dJ B- F	16bb-	.
.	16ffJJ)	.
8FL FF	(16ddLL	.
.	16ff	.
8dJ B- F	16gg	.
.	16bb-JJ)	.
=54	=54	=54
*	*^	*
(8GL GG	4b-	(8enL	.
8G-J GG-)	.	8e-J)	.
4F FF	16ccLK	8.aL e-	.
.	8dd	.	.
.	[16b-Jk	[16dJk	.
*	*v	*v	*
!!LO:LB:g=original
=55	=55	=55
*^	*	*
[4B-	8BB-L	4b-_ d_<	.
.	8FJ	.	.
*	*	*^	*
4B-]	4BB-	(16b-LL]	4d]	.
.	.	16cc a-	.	.
.	.	16b- g	.	.
.	.	16a-JJ f)	.	.
*v	*v	*	*	*
*	*v	*v	*
=56!|:	=56!|:	=56!|:
*>D	*>D	*>D
*k[b-e-a-]	*k[b-e-a-]	*k[b-e-a-]
*E-:	*E-:	*E-:
(8EE-L	16gLK e- B-	mp
.	8f# e- An	.
8CJ)	.	.
.	[16gJk [e- [B-	.
(16BB-LL	4g] e-] B-]	.
16E-	.	.
16BB-	.	.
16GGJJ)	.	.
=57	=57	=57
(8EE-L	16gLK e- B-	.
.	8f# e- An	.
8CJ)	.	.
.	[16gJk [e- [B-	.
(16BB-LL	4g] e-] B-]	.
16E-	.	.
16BB-	.	.
16GGJJ)	.	.
=58	=58	=58
*^	*^	*
(8AA-L	4AA-	16e-LK	8.cL e-	.
.	.	8f	.	.
.	.	.	.	.
.	.	.	.	.
8E-J)	.	.	.	.
.	.	[16g-Jk	[16e-Jk [c	.
(8AA-L	4AA-	(16g-LL]	4e-] c]	.
.	.	16fJ	.	.
8E-J)	.	8e-J)	.	.
*	*	*v	*v	*
=59	=59	=59	=59
(16EE-LL	4EE-	(((4gn e- B-	.
16BB-	.	.	.
16E-	.	.	.
16GJJ	.	.	.
*	*	*^	*
4B-)	4rEEy	16a-LL f)))	4d	.
.	.	(16cc a-	.	.
.	.	16b- g	.	.
.	.	16a-JJ f)	.	.
*v	*v	*	*	*
*	*v	*v	*
!!LO:LB:g=original
=60	=60	=60
(8EE-L	16gLK e- B-	.
.	8f# e- An	.
8CJ)	.	.
.	[16gJk [e- [B-	.
16BB-LL	8g]L e-] B-]	<
16E-J	.	.
8CJ	8ee-J cc g	[[
=61	=61	=61
(8DL	16ee-LK b- g	<
.	8dd b- g	.
8GJ)	.	.
.	[16ddJk [b- [g	[[
(16B-LL	8dd]L b-] g]	.
16GJ	.	.
8DJ)	8bb-J gg dd	.
=62	=62	=62
*^	*^	*
8DL	4D	16bb-LK	8.ff#L cc	mf
.	.	8aan	.	.
8dJ c	.	.	.	.
.	.	[16aaJk	[16ff#Jk [cc	.
8DL	4D	16aaLL]	8ff#]L cc]	.
.	.	16bb-J	.	.
8dJ c	.	8aaJ	8ff#J cc	.
*	*	*v	*v	*
=63	=63	=63	=63
4d B-	8GL	4gg b-	.
.	(16DL	.	.
.	16GJJ)	.	.
*	*	*^	*
4ryyy	4B-	(16b-LL g	4d	>
.	.	16cc a-X	.	.
.	.	16b- g	.	.
.	.	16a-JJ f)	.	]]
*v	*v	*	*	*
*	*v	*v	*
=64	=64	=64
(8EE-L	16gLK e- B-	mp
.	8f# e- An	.
8CJ)	.	.
.	[16gJk [e- [B-	.
(16BB-LL	4g] e-] B-]	.
16E-	.	.
16BB-	.	.
16GGJJ)	.	.
!!LO:LB:g=original
=65	=65	=65
(8EE-L	16gLK e- B-	.
.	8f# e- An	.
8CJ)	.	.
.	[16gJk [e- [B-	.
(16BB-LL	4g] e-] B-]	.
16E-	.	.
16BB-	.	.
16GGJJ)	.	.
=66	=66	=66
*^	*^	*
(8AA-L	4AA-	16e-LK	8.cL	.
.	.	8f	.	.
8E-J)	.	.	.	.
.	.	[16g-Jk	[16e-Jk [c	.
(8AA-L	4AA-	(16g-LL]	4e-] c]	.
.	.	16fJ	.	.
8E-J)	.	8e-J)	.	.
*v	*v	*	*	*
*	*v	*v	*
=67	=67	=67
(16EE-LL	[4gn [e- [B-	.
16GG	.	.
16BB-	.	.
16E-JJ)	.	.
(8BB-L	8g]L e-] B-]	.
8GGJ)	8b-J e- d-	.
=68	=68	=68
*^	*^	*
(8AA-L	4AA-	(16b-LK	8.e-L c	.
.	.	8a-)	.	.
8E-J)	.	.	.	.
.	.	[16ccJk	[16a-Jk [e-	.
*v	*v	*	*	*
8AA-L	16ccLL]	8a-]L e-]	.
.	16bnJ	.	.
8AAnJ	8ccJ	8f#J e-	.
=69	=69	=69	=69
*^	*	*	*
(8BB-L	4BB-	(16ccLK	8.gL e-	.
.	.	8b-X)	.	.
8B-J)	.	.	.	.
.	.	[16ggJk	[16ee-Jk [b-	.
(8BB-L	4BB-	(16ggLL]	8ee-]L b-]	.
.	.	16ee-J	.	.
8B-J)	.	8gJ)	8e-J	.
*v	*v	*	*	*
!!LO:LB:g=original
=70	=70	=70	=70
(8BB-L	(16gLK	8.dL A-	.
.	8f)	.	.
8BBB-J)	.	.	.
.	[16ccJk [a-	[16dJk	.
(8BB-L	16cc]LL a-]	8dL]	.
.	16b-J	.	.
8BBB-J)	8gJ	8dJ A-	.
*	*v	*v	*
=71	=71	=71
*>D1	*>D1	*>D1
8E- BB- EE-	8e-L G	.
8r	(16B-L	.
.	16cJJ	.
4A- F BB-	16dLL	.
.	16e-	.
.	16f	.
.	16f#JJ)	.
=72:|!	=72:|!	=72:|!
*>D2	*>D2	*>D2
(8E-L BB- EE-	[4e- [G	.
8GG	.	.
8BB-	16e-]LL G]	.
.	16dd d	.
8E-J)	16ee- e-	.
.	16ffJJ f	.
=73!|:	=73!|:	=73!|:
*>E	*>E	*>E
(8C-L	16gg-LK ee- cc- g-	mf
.	8gg- ee- cc- g-	.
8D-	.	.
.	[16gg-Jk [ee- [cc- [g-	.
8E-	4gg-_ ee-_ cc-_ g-_	.
8G-J)	.	.
=74	=74	=74
(8c-L	16gg-X]LL ee-] cc-X] g-X]	.
.	16ee- cc-	.
8G-	16gg- g-	.
.	16cc-JJ	.
8E-	16ee-LK	.
.	8gg- g-	.
8C-J)	.	.
.	16ee-Jk cc-	.
!!LO:LB:g=original
=75	=75	=75
(8BB-L	16ggnLK ee- b- gn	.
.	8gg ee- b- g	.
8E-	.	.
.	[16ggJk [ee- [b- [g	.
8F	4gg_ ee-_ b-_ g_	.
8GnJ)	.	.
=76	=76	=76
(8B-L	16gg]LL ee-] b-] g]	.
.	16gg ee-	.
8G	16bb- b-	.
.	16ee-JJ	.
8E-	16ffLK	.
.	8.ggJ ee- b-	.
8BB-J)	.	.
=77	=77	=77
8DL DD	16cccLK aa-	.
.	8bb- gg	.
8dJ B- A-	.	.
.	[16aa-Jk [ff	.
8BB-L< BBB-	16aa-]LL ff]	.
.	16ggJ ee-	.
8dJ B- A-	8ffJ dd	.
=78	=78	=78
8B-L BB-	16eenLK cc#	.
.	8ff dd	.
8dJ B- A-	.	.
.	[16ffJk [dd	.
8BB-L< BBB-	16ff]LL dd]	.
.	16ggJ ee-	.
8dJ B- A-	8aa-J ff	.
=79	=79	=79
8E-L EE-	(16cccLK gg ee-	.
.	8bb-)	.
8e-J B- G	.	.
.	[16ggJk [b-	.
8BB-L BBB-	(16gg]LL b-]	.
.	16ffJ a-	.
8e-J B- G	8ee-J g)	.
!!LO:LB:g=original
=80	=80	=80
8E-L EE-	16ff#LK an	.
.	8gg b-	.
8e-J B- G	.	.
.	[16ggJk [b-	.
8B- G	16gg]LL b-]	.
.	16dd d	.
8r	16ee- e-	.
.	16ffnJJ fn	.
=81	=81	=81
(8C-L	16gg-LK ee- cc- g-	.
.	8gg- ee- cc- g-	.
8D-	.	.
.	[16gg-Jk [ee- [cc- [g-	.
8E-	4gg-_ ee-_ cc-_ g-_	.
8G-J)	.	.
=82	=82	=82
(8c-L	16gg-X]LL ee-] cc-X] g-X]	.
.	16ee- cc-	.
8G-	16gg- g-	.
.	16cc-JJ	.
8E-	16ee-LK	.
.	8gg- g-	.
8C-J)	.	.
.	16ee-Jk cc-	.
=83	=83	=83
(8BB-L	16ggnLK ee- b- gn	.
.	8gg ee- b- g	.
8E-	.	.
.	[16ggJk [ee- [b- [g	.
8F	4gg_ ee-_ b-_ g_	.
8GnJ)	.	.
=84	=84	=84
(8B-L	16gg]LL ee-] b-] g]	.
.	16gg ee-	.
8G	16bb- b-	.
.	16ee-JJ	.
8E-	16ffLK	.
.	8.ggJ ee- b-	.
8BB-J)	.	.
!!LO:LB:g=original
=85	=85	=85
(8AA-L	16ggLK ee- cc	.
.	8gg ee- cc	.
8C	.	.
.	[16ffJk [<ee- [<cc	.
*	*^	*
8E-	16ffLL]	8ee-]L cc]	.
.	16ee-J	.	.
8A-J)	8ffJ	8ee-J cc-	.
*	*v	*v	*
=86	=86	=86
(8BB-L	16ggLK ee- b-	.
.	8gg ee- b-	.
8E-	.	.
.	[16bb-Jk [ee- [b-	.
*	*^	*
8G	(16bb-LL]	8ee-]L b-]	.
.	16ee-J)	.	.
8B-J)	8ggJ	8ee-J b-	.
=87	=87	=87	=87
8FL FF	16bb-LK	8.ddL b-	.
.	8aa-	.	.
8dJ B- A-	.	.	.
.	[16ggJk	[>16ddJk [a-	.
8BB-L< BBB-	(16ggLL]	8dd]L a-]	.
.	16ffJ)	.	.
8dJ B- A-	8ggJ	8ddJ a-	.
*	*v	*v	*
=88	=88	=88
*>E1	*>E1	*>E1
(8E-L EE-	[4ee- [b- [g	.
8GG	.	.
8BB-	16ee-]LL< b-] g]	.
.	16dd d	.
8E-J)	16ee- e-	.
.	16ffJJ f	.
=89:|!	=89:|!	=89:|!
*>E2	*>E2	*>E2
8E-L EE-	4ee- b- g	.
8BB-J	.	.
8EE-	8eee- bb- gg ee-	.
8r	8r	.
!	!LO:TX:c:t=Fine.	!
==	==	==
*-	*-	*-
!!!RDF**kern: > = above
!!!RDF**kern: < = below
!!!URL-vhv: https://verovio.humdrum.org/?file=joplin/pineapple.krn
!!!URL-pdf-original: https://github.com/craigsapp/joplin/blob/master/reference-edition/pineapple.pdf
!!!PPR: Seminary Music Co.
!!!PPP: 112 W. 38th St. N.Y.
!!!PDT: 1908
!!!YEC: Copyright 2004 by Craig Stuart Sapp
!!!YEN: United States of America
!!!ENC: Craig Stuart Sapp
!!!END: 2004/06/07
!!!EED: Craig Stuart Sapp
!!!EEV: 2021/06/30
